X:6457
T:Tente redde
O:england
C:MCTB 1/48
M:3/8
L:1/16
K:C
G2|c2B2A2|G4c2|Bcd2f2|e2c2G2|\
c2B2A2|G4c2|Bcd2B2|c4:|
|:G2|c2Bcde|d2gag2|f3dec|B2G2G2|\
c2Bcde|d2gag2|f2e2d2|g4:|
|:eg|fedefd|e2c2c2|Bcdefg|f2d2eg|\
fedefd|e2c2c2|BcdedB|c4:|


